src/components/Icon/assets/apps.svg

<svg width="24" height="24" viewBox="0 0 24 24" fill="none" xmlns="http://www.w3.org/2000/svg">
<g id="apps">
<path id="Combined Shape" fill-rule="evenodd" clip-rule="evenodd" d="M4.0002 3.00009H10.0002C10.5522 3.00009 11.0002 3.44709 11.0002 4.00009V10.0001C11.0002 10.5521 10.5522 11.0001 10.0002 11.0001H4.0002C3.4482 11.0001 3.0002 10.5521 3.0002 10.0001V4.00009C3.0002 3.44709 3.4482 3.00009 4.0002 3.00009ZM9.0002 9.00009H5.0002V5.00009H9.0002V9.00009ZM14.0002 3.00009H20.0002C20.5522 3.00009 21.0002 3.44709 21.0002 4.00009V10.0001C21.0002 10.5521 20.5522 11.0001 20.0002 11.0001H14.0002C13.4482 11.0001 13.0002 10.5521 13.0002 10.0001V4.00009C13.0002 3.44709 13.4482 3.00009 14.0002 3.00009ZM19.0002 9.00009H15.0002V5.00009H19.0002V9.00009ZM10.0002 13.0001H4.0002C3.4482 13.0001 3.0002 13.4471 3.0002 14.0001V20.0001C3.0002 20.5521 3.4482 21.0001 4.0002 21.0001H10.0002C10.5522 21.0001 11.0002 20.5521 11.0002 20.0001V14.0001C11.0002 13.4471 10.5522 13.0001 10.0002 13.0001ZM5.0002 19.0001H9.0002V15.0001H5.0002V19.0001ZM14.0002 13.0001H20.0002C20.5522 13.0001 21.0002 13.4471 21.0002 14.0001V20.0001C21.0002 20.5521 20.5522 21.0001 20.0002 21.0001H14.0002C13.4482 21.0001 13.0002 20.5521 13.0002 20.0001V14.0001C13.0002 13.4471 13.4482 13.0001 14.0002 13.0001ZM19.0002 19.0001H15.0002V15.0001H19.0002V19.0001Z" fill="#242428"/>
</g>
</svg>

<svg xmlns="http://www.w3.org/2000/svg" width="24" height="24" fill="none" viewBox="0 0 24 24">
    <path fill="#65676A" fill-rule="evenodd" d="M4 3h6c.552 0 1 .447 1 1v6c0 .552-.448 1-1 1H4c-.552 0-1-.448-1-1V4c0-.553.448-1 1-1zm5 6H5V5h4v4zm5-6h6c.552 0 1 .447 1 1v6c0 .552-.448 1-1 1h-6c-.552 0-1-.448-1-1V4c0-.553.448-1 1-1zm5 6h-4V5h4v4zm-9 4H4c-.552 0-1 .447-1 1v6c0 .552.448 1 1 1h6c.552 0 1-.448 1-1v-6c0-.553-.448-1-1-1zm-5 6h4v-4H5v4zm9-6h6c.552 0 1 .447 1 1v6c0 .552-.448 1-1 1h-6c-.552 0-1-.448-1-1v-6c0-.553.448-1 1-1zm5 6h-4v-4h4v4z" clip-rule="evenodd"/>
</svg>
